transit-connection.svg

<svg fill="currentColor" viewBox="0 0 24 24"><path d="M15 12c0-1.3-.84-2.4-2-2.82V6.82C14.16 6.4 15 5.3 15 4a3 3 0 0 0-3-3 3 3 0 0 0-3 3c0 1.3.84 2.4 2 2.82v2.37C9.84 9.6 9 10.7 9 12s.84 2.4 2 2.82v2.36C9.84 17.6 9 18.7 9 20a3 3 0 0 0 3 3 3 3 0 0 0 3-3c0-1.3-.84-2.4-2-2.82v-2.36c1.16-.42 2-1.52 2-2.82m-3-9a1 1 0 0 1 1 1 1 1 0 0 1-1 1 1 1 0 0 1-1-1 1 1 0 0 1 1-1m0 18a1 1 0 0 1-1-1 1 1 0 0 1 1-1 1 1 0 0 1 1 1 1 1 0 0 1-1 1"/></svg>

<svg  viewBox="0 0 24 24" fill="currentColor"><path  d="M15,12C15,10.7 14.16,9.6 13,9.18V6.82C14.16,6.4 15,5.3 15,4A3,3 0 0,0 12,1A3,3 0 0,0 9,4C9,5.3 9.84,6.4 11,6.82V9.19C9.84,9.6 9,10.7 9,12C9,13.3 9.84,14.4 11,14.82V17.18C9.84,17.6 9,18.7 9,20A3,3 0 0,0 12,23A3,3 0 0,0 15,20C15,18.7 14.16,17.6 13,17.18V14.82C14.16,14.4 15,13.3 15,12M12,3A1,1 0 0,1 13,4A1,1 0 0,1 12,5A1,1 0 0,1 11,4A1,1 0 0,1 12,3M12,21A1,1 0 0,1 11,20A1,1 0 0,1 12,19A1,1 0 0,1 13,20A1,1 0 0,1 12,21Z"/></svg>
